luts/underwater_base.cube
TITLE "look_v1"
# Generated by dorea pipeline
# Reference look: look_v1
LUT_3D_SIZE 9
0.066218 0.087286 0.124653
0.073351 0.088808 0.126175
0.107274 0.096045 0.133413
0.176870 0.110895 0.148262
0.320931 0.141632 0.178999
0.576653 0.196193 0.233560
0.601549 0.201505 0.238872
0.601564 0.201508 0.238875
0.601564 0.201508 0.238875
0.071570 0.098502 0.130004
0.078702 0.100024 0.131526
0.112626 0.107262 0.138764
0.182222 0.122111 0.153613
0.326282 0.152848 0.184350
0.582004 0.207410 0.238911
0.606900 0.212721 0.244223
0.606916 0.212725 0.244227
0.606916 0.212725 0.244227
0.099944 0.157973 0.158378
0.107077 0.159495 0.159900
0.141000 0.166733 0.167138
0.210596 0.181582 0.181987
0.354656 0.212319 0.212724
0.610379 0.266881 0.267286
0.635274 0.272192 0.272597
0.635290 0.272196 0.272601
0.635290 0.272196 0.272601
0.162764 0.289643 0.221199
0.169897 0.291165 0.222721
0.203821 0.298403 0.229959
0.273417 0.313252 0.244808
0.417477 0.343989 0.275545
0.673199 0.398550 0.330106
0.698095 0.403862 0.335418
0.698110 0.403865 0.335421
0.698110 0.403865 0.335421
0.296580 0.570114 0.355014
0.303713 0.571636 0.356536
0.337636 0.578874 0.363774
0.407232 0.593723 0.378623
0.551292 0.624460 0.409360
0.807015 0.679022 0.463922
0.831910 0.684333 0.469233
0.831926 0.684337 0.469237
0.831926 0.684337 0.469237
0.429272 0.848232 0.487707
0.436405 0.849754 0.489229
0.470328 0.856992 0.496467
0.539924 0.871841 0.511316
0.683985 0.902578 0.542053
0.939707 0.957140 0.596614
0.964603 0.962451 0.601926
0.964618 0.962455 0.601929
0.964618 0.962455 0.601929
0.431246 0.852370 0.489681
0.438379 0.853891 0.491203
0.472302 0.861129 0.498440
0.541898 0.875978 0.513290
0.685959 0.906715 0.544027
0.941681 0.961277 0.598588
0.966576 0.966589 0.603900
0.966592 0.966592 0.603903
0.966592 0.966592 0.603903
0.431246 0.852370 0.489681
0.438379 0.853892 0.491203
0.472302 0.861130 0.498441
0.541898 0.875979 0.513290
0.685959 0.906716 0.544027
0.941681 0.961277 0.598588
0.966577 0.966589 0.603900
0.966592 0.966592 0.603903
0.966592 0.966592 0.603903
0.431246 0.852370 0.489681
0.438379 0.853892 0.491203
0.472302 0.861130 0.498441
0.541898 0.875979 0.513290
0.685959 0.906716 0.544027
0.941681 0.961277 0.598588
0.966577 0.966589 0.603900
0.966592 0.966592 0.603903
0.966592 0.966592 0.603903
0.066898 0.087966 0.132721
0.074031 0.089488 0.134243
0.107955 0.096726 0.141481
0.177551 0.111575 0.156330
0.321611 0.142312 0.187067
0.577333 0.196873 0.241629
0.602229 0.202185 0.246940
0.602245 0.202188 0.246944
0.602245 0.202188 0.246944
0.072250 0.099183 0.138073
0.079383 0.100705 0.139595
0.113306 0.107943 0.146833
0.182902 0.122792 0.161682
0.326963 0.153529 0.192419
0.582685 0.208090 0.246980
0.607581 0.213402 0.252292
0.607596 0.213405 0.252295
0.607596 0.213405 0.252295
0.100624 0.158654 0.166447
0.107757 0.160176 0.167969
0.141680 0.167414 0.175207
0.211276 0.182263 0.190056
0.355337 0.213000 0.220793
0.611059 0.267561 0.275354
0.635955 0.272873 0.280666
0.635970 0.272876 0.280669
0.635970 0.272876 0.280669
0.163445 0.290324 0.229268
0.170578 0.291846 0.230790
0.204501 0.299083 0.238028
0.274097 0.313933 0.252877
0.418158 0.344670 0.283614
0.673880 0.399231 0.338175
0.698776 0.404543 0.343487
0.698791 0.404546 0.343490
0.698791 0.404546 0.343490
0.297260 0.570795 0.363083
0.304393 0.572317 0.364605
0.338316 0.579555 0.371843
0.407912 0.594404 0.386692
0.551973 0.625141 0.417429
0.807695 0.679702 0.471990
0.832591 0.685014 0.477302
0.832606 0.685017 0.477305
0.832606 0.685017 0.477305
0.429953 0.848913 0.495775
0.437085 0.850435 0.497297
0.471009 0.857673 0.504535
0.540605 0.872522 0.519384
0.684665 0.903259 0.550121
0.940387 0.957820 0.604683
0.965283 0.963132 0.609994
0.965299 0.963135 0.609998
0.965299 0.963135 0.609998
0.431926 0.853050 0.497749
0.439059 0.854572 0.499271
0.472983 0.861810 0.506509
0.542579 0.876659 0.521358
0.686639 0.907396 0.552095
0.942361 0.961957 0.606656
0.967257 0.967269 0.611968
0.967272 0.967272 0.611972
0.967272 0.967272 0.611972
0.431927 0.853050 0.497749
0.439059 0.854572 0.499271
0.472983 0.861810 0.506509
0.542579 0.876659 0.521358
0.686639 0.907396 0.552095
0.942361 0.961958 0.606657
0.967257 0.967269 0.611968
0.967273 0.967273 0.611972
0.967273 0.967273 0.611972
0.431927 0.853050 0.497749
0.439059 0.854572 0.499271
0.472983 0.861810 0.506509
0.542579 0.876659 0.521358
0.686639 0.907396 0.552095
0.942361 0.961958 0.606657
0.967257 0.967269 0.611968
0.967273 0.967273 0.611972
0.967273 0.967273 0.611972
0.070324 0.091392 0.173336
0.077457 0.092914 0.174858
0.111380 0.100152 0.182096
0.180976 0.115001 0.196945
0.325037 0.145738 0.227682
0.580759 0.200299 0.282243
0.605655 0.205611 0.287555
0.605670 0.205614 0.287558
0.605670 0.205614 0.287558
0.075676 0.102608 0.178687
0.082809 0.104130 0.180209
0.116732 0.111368 0.187447
0.186328 0.126217 0.202296
0.330388 0.156954 0.233033
0.586111 0.211516 0.287595
0.611006 0.216827 0.292906
0.611022 0.216831 0.292910
0.611022 0.216831 0.292910
0.104050 0.162079 0.207062
0.111183 0.163601 0.208584
0.145106 0.170839 0.215821
0.214702 0.185688 0.230671
0.358762 0.216425 0.261408
0.614485 0.270987 0.315969
0.639380 0.276298 0.321281
0.639396 0.276302 0.321284
0.639396 0.276302 0.321284
0.166870 0.293749 0.269882
0.174003 0.295271 0.271404
0.207927 0.302509 0.278642
0.277523 0.317358 0.293491
0.421583 0.348095 0.324228
0.677305 0.402656 0.378790
0.702201 0.407968 0.384101
0.702217 0.407971 0.384105
0.702217 0.407971 0.384105
0.300686 0.574221 0.403698
0.307819 0.575742 0.405219
0.341742 0.582980 0.412457
0.411338 0.597829 0.427307
0.555398 0.628566 0.458044
0.811121 0.683128 0.512605
0.836016 0.688440 0.517917
0.836032 0.688443 0.517920
0.836032 0.688443 0.517920
0.433378 0.852338 0.536390
0.440511 0.853860 0.537912
0.474434 0.861098 0.545150
0.544030 0.875947 0.559999
0.688091 0.906684 0.590736
0.943813 0.961246 0.645297
0.968709 0.966557 0.650609
0.968724 0.966561 0.650612
0.968724 0.966561 0.650612
0.435352 0.856476 0.538364
0.442485 0.857998 0.539886
0.476408 0.865235 0.547124
0.546004 0.880085 0.561973
0.690065 0.910822 0.592710
0.945787 0.965383 0.647271
0.970683 0.970695 0.652583
0.970698 0.970698 0.652586
0.970698 0.970698 0.652586
0.435352 0.856476 0.538364
0.442485 0.857998 0.539886
0.476408 0.865236 0.547124
0.546004 0.880085 0.561973
0.690065 0.910822 0.592710
0.945787 0.965383 0.647271
0.970683 0.970695 0.652583
0.970698 0.970698 0.652586
0.970698 0.970698 0.652586
0.435352 0.856476 0.538364
0.442485 0.857998 0.539886
0.476408 0.865236 0.547124
0.546004 0.880085 0.561973
0.690065 0.910822 0.592710
0.945787 0.965383 0.647271
0.970683 0.970695 0.652583
0.970698 0.970698 0.652586
0.970698 0.970698 0.652586
0.077118 0.098186 0.253888
0.084251 0.099708 0.255409
0.118174 0.106946 0.262647
0.187770 0.121795 0.277496
0.331831 0.152532 0.308233
0.587553 0.207093 0.362795
0.612449 0.212405 0.368106
0.612464 0.212408 0.368110
0.612464 0.212408 0.368110
0.082470 0.109402 0.259239
0.089603 0.110924 0.260761
0.123526 0.118162 0.267999
0.193122 0.133011 0.282848
0.337182 0.163748 0.313585
0.592904 0.218310 0.368146
0.617800 0.223621 0.373458
0.617816 0.223625 0.373461
0.617816 0.223625 0.373461
0.110844 0.168873 0.287613
0.117977 0.170395 0.289135
0.151900 0.177633 0.296373
0.221496 0.192482 0.311222
0.365556 0.223219 0.341959
0.621279 0.277781 0.396520
0.646174 0.283092 0.401832
0.646190 0.283096 0.401835
0.646190 0.283096 0.401835
0.173664 0.300543 0.350434
0.180797 0.302065 0.351956
0.214721 0.309303 0.359194
0.284317 0.324152 0.374043
0.428377 0.354889 0.404780
0.684099 0.409450 0.459341
0.708995 0.414762 0.464653
0.709011 0.414765 0.464656
0.709011 0.414765 0.464656
0.307480 0.581015 0.484249
0.314613 0.582536 0.485771
0.348536 0.589774 0.493009
0.418132 0.604623 0.507858
0.562192 0.635360 0.538595
0.817915 0.689922 0.593156
0.842810 0.695233 0.598468
0.842826 0.695237 0.598471
0.842826 0.695237 0.598471
0.440172 0.859132 0.616942
0.447305 0.860654 0.618463
0.481228 0.867892 0.625701
0.550824 0.882741 0.640550
0.694885 0.913478 0.671287
0.950607 0.968040 0.725849
0.975503 0.973351 0.731161
0.975518 0.973355 0.731164
0.975518 0.973355 0.731164
0.442146 0.863270 0.618915
0.449279 0.864791 0.620437
0.483202 0.872029 0.627675
0.552798 0.886878 0.642524
0.696859 0.917615 0.673261
0.952581 0.972177 0.727823
0.977476 0.977489 0.733134
0.977492 0.977492 0.733138
0.977492 0.977492 0.733138
0.442146 0.863270 0.618916
0.449279 0.864792 0.620437
0.483202 0.872030 0.627675
0.552798 0.886879 0.642524
0.696859 0.917616 0.673261
0.952581 0.972177 0.727823
0.977477 0.977489 0.733135
0.977492 0.977492 0.733138
0.977492 0.977492 0.733138
0.442146 0.863270 0.618916
0.449279 0.864792 0.620437
0.483202 0.872030 0.627675
0.552798 0.886879 0.642524
0.696859 0.917616 0.673261
0.952581 0.972177 0.727823
0.977477 0.977489 0.733135
0.977492 0.977492 0.733138
0.977492 0.977492 0.733138
0.089654 0.110722 0.402520
0.096787 0.112244 0.404042
0.130710 0.119482 0.411280
0.200306 0.134331 0.426129
0.344367 0.165068 0.456866
0.600089 0.219629 0.511427
0.624985 0.224941 0.516739
0.625000 0.224944 0.516742
0.625000 0.224944 0.516742
0.095006 0.121938 0.407871
0.102139 0.123460 0.409393
0.136062 0.130698 0.416631
0.205658 0.145547 0.431480
0.349718 0.176284 0.462217
0.605441 0.230846 0.516779
0.630336 0.236157 0.522090
0.630352 0.236161 0.522094
0.630352 0.236161 0.522094
0.123380 0.181409 0.436246
0.130513 0.182931 0.437767
0.164436 0.190169 0.445005
0.234032 0.205018 0.459854
0.378092 0.235755 0.490591
0.633815 0.290317 0.545153
0.658710 0.295628 0.550464
0.658726 0.295632 0.550468
0.658726 0.295632 0.550468
0.186200 0.313079 0.499066
0.193333 0.314601 0.500588
0.227257 0.321839 0.507826
0.296853 0.336688 0.522675
0.440913 0.367425 0.553412
0.696635 0.421986 0.607973
0.721531 0.427298 0.613285
0.721547 0.427302 0.613289
0.721547 0.427302 0.613289
0.320016 0.593551 0.632881
0.327149 0.595072 0.634403
0.361072 0.602310 0.641641
0.430668 0.617159 0.656490
0.574728 0.647896 0.687227
0.830451 0.702458 0.741789
0.855346 0.707770 0.747100
0.855362 0.707773 0.747104
0.855362 0.707773 0.747104
0.452708 0.871668 0.765574
0.459841 0.873190 0.767096
0.493764 0.880428 0.774334
0.563360 0.895277 0.789183
0.707421 0.926014 0.819920
0.963143 0.980576 0.874481
0.988039 0.985887 0.879793
0.988054 0.985891 0.879796
0.988054 0.985891 0.879796
0.454682 0.875806 0.767548
0.461815 0.877328 0.769070
0.495738 0.884565 0.776308
0.565334 0.899415 0.791157
0.709395 0.930152 0.821894
0.965117 0.984713 0.876455
0.990013 0.990025 0.881767
0.990028 0.990028 0.881770
0.990028 0.990028 0.881770
0.454682 0.875806 0.767548
0.461815 0.877328 0.769070
0.495738 0.884566 0.776308
0.565334 0.899415 0.791157
0.709395 0.930152 0.821894
0.965117 0.984713 0.876455
0.990013 0.990025 0.881767
0.990028 0.990028 0.881770
0.990028 0.990028 0.881770
0.454682 0.875806 0.767548
0.461815 0.877328 0.769070
0.495738 0.884566 0.776308
0.565334 0.899415 0.791157
0.709395 0.930152 0.821894
0.965117 0.984713 0.876455
0.990013 0.990025 0.881767
0.990028 0.990028 0.881770
0.990028 0.990028 0.881770
0.099336 0.120404 0.517313
0.106469 0.121926 0.518834
0.140392 0.129164 0.526072
0.209988 0.144013 0.540921
0.354049 0.174750 0.571658
0.609771 0.229311 0.626220
0.634667 0.234623 0.631532
0.634682 0.234626 0.631535
0.634682 0.234626 0.631535
0.104688 0.131620 0.522664
0.111821 0.133142 0.524186
0.145744 0.140380 0.531424
0.215340 0.155229 0.546273
0.359400 0.185966 0.577010
0.615122 0.240528 0.631571
0.640018 0.245839 0.636883
0.640034 0.245843 0.636886
0.640034 0.245843 0.636886
0.133062 0.191091 0.551038
0.140195 0.192613 0.552560
0.174118 0.199851 0.559798
0.243714 0.214700 0.574647
0.387774 0.245437 0.605384
0.643497 0.299999 0.659945
0.668392 0.305310 0.665257
0.668408 0.305314 0.665261
0.668408 0.305314 0.665261
0.195882 0.322761 0.613859
0.203015 0.324283 0.615381
0.236939 0.331521 0.622619
0.306535 0.346370 0.637468
0.450595 0.377107 0.668205
0.706317 0.431668 0.722766
0.731213 0.436980 0.728078
0.731229 0.436983 0.728081
0.731229 0.436983 0.728081
0.329698 0.603233 0.747674
0.336831 0.604754 0.749196
0.370754 0.611992 0.756434
0.440350 0.626841 0.771283
0.584410 0.657578 0.802020
0.840133 0.712140 0.856581
0.865028 0.717451 0.861893
0.865044 0.717455 0.861896
0.865044 0.717455 0.861896
0.462390 0.881350 0.880367
0.469523 0.882872 0.881888
0.503446 0.890110 0.889126
0.573042 0.904959 0.903975
0.717103 0.935696 0.934712
0.972825 0.990258 0.989274
0.997721 0.995569 0.994586
0.997736 0.995573 0.994589
0.997736 0.995573 0.994589
0.464364 0.885488 0.882340
0.471497 0.887009 0.883862
0.505420 0.894247 0.891100
0.575016 0.909096 0.905949
0.719077 0.939833 0.936686
0.974799 0.994395 0.991248
0.999694 0.999707 0.996559
0.999710 0.999710 0.996563
0.999710 0.999710 0.996563
0.464364 0.885488 0.882341
0.471497 0.887010 0.883862
0.505420 0.894248 0.891100
0.575016 0.909097 0.905949
0.719077 0.939834 0.936686
0.974799 0.994395 0.991248
0.999695 0.999707 0.996560
0.999710 0.999710 0.996563
0.999710 0.999710 0.996563
0.464364 0.885488 0.882341
0.471497 0.887010 0.883862
0.505420 0.894248 0.891100
0.575016 0.909097 0.905949
0.719077 0.939834 0.936686
0.974799 0.994395 0.991248
0.999695 0.999707 0.996560
0.999710 0.999710 0.996563
0.999710 0.999710 0.996563
0.099625 0.120693 0.520744
0.106758 0.122215 0.522266
0.140682 0.129453 0.529504
0.210278 0.144302 0.544353
0.354338 0.175039 0.575090
0.610060 0.229600 0.629652
0.634956 0.234912 0.634963
0.634972 0.234915 0.634967
0.634972 0.234915 0.634967
0.104977 0.131910 0.526096
0.112110 0.133432 0.527618
0.146033 0.140670 0.534856
0.215629 0.155519 0.549705
0.359690 0.186256 0.580442
0.615412 0.240817 0.635003
0.640308 0.246129 0.640315
0.640323 0.246132 0.640318
0.640323 0.246132 0.640318
0.133351 0.191381 0.554470
0.140484 0.192903 0.555992
0.174407 0.200141 0.563230
0.244003 0.214990 0.578079
0.388064 0.245727 0.608816
0.643786 0.300288 0.663377
0.668682 0.305600 0.668689
0.668697 0.305603 0.668692
0.668697 0.305603 0.668692
0.196172 0.323051 0.617291
0.203305 0.324573 0.618813
0.237228 0.331810 0.626051
0.306824 0.346660 0.640900
0.450885 0.377397 0.671637
0.706607 0.431958 0.726198
0.731502 0.437270 0.731510
0.731518 0.437273 0.731513
0.731518 0.437273 0.731513
0.329987 0.603522 0.751106
0.337120 0.605044 0.752628
0.371043 0.612282 0.759866
0.440639 0.627131 0.774715
0.584700 0.657868 0.805452
0.840422 0.712429 0.860013
0.865318 0.717741 0.865325
0.865333 0.717744 0.865328
0.865333 0.717744 0.865328
0.462679 0.881640 0.883799
0.469812 0.883162 0.885320
0.503736 0.890400 0.892558
0.573332 0.905249 0.907407
0.717392 0.935986 0.938144
0.973114 0.990547 0.992706
0.998010 0.995859 0.998018
0.998026 0.995862 0.998021
0.998026 0.995862 0.998021
0.464653 0.885777 0.885772
0.471786 0.887299 0.887294
0.505710 0.894537 0.894532
0.575305 0.909386 0.909381
0.719366 0.940123 0.940118
0.975088 0.994684 0.994680
0.999984 0.999996 0.999991
0.999999 0.999999 0.999995
0.999999 0.999999 0.999995
0.464653 0.885777 0.885773
0.471786 0.887299 0.887294
0.505710 0.894537 0.894532
0.575306 0.909386 0.909381
0.719366 0.940123 0.940118
0.975088 0.994684 0.994680
0.999984 0.999996 0.999991
1.000000 1.000000 0.999995
1.000000 1.000000 0.999995
0.464653 0.885777 0.885773
0.471786 0.887299 0.887294
0.505710 0.894537 0.894532
0.575306 0.909386 0.909381
0.719366 0.940123 0.940118
0.975088 0.994684 0.994680
0.999984 0.999996 0.999991
1.000000 1.000000 0.999995
1.000000 1.000000 0.999995
0.099626 0.120694 0.520750
0.106759 0.122215 0.522272
0.140682 0.129453 0.529510
0.210278 0.144302 0.544359
0.354339 0.175039 0.575096
0.610061 0.229601 0.629657
0.634956 0.234913 0.634969
0.634972 0.234916 0.634972
0.634972 0.234916 0.634972
0.104977 0.131910 0.526101
0.112110 0.133432 0.527623
0.146034 0.140670 0.534861
0.215630 0.155519 0.549710
0.359690 0.186256 0.580447
0.615412 0.240817 0.635008
0.640308 0.246129 0.640320
0.640324 0.246133 0.640324
0.640324 0.246133 0.640324
0.133352 0.191381 0.554475
0.140485 0.192903 0.555997
0.174408 0.200141 0.563235
0.244004 0.214990 0.578084
0.388064 0.245727 0.608821
0.643786 0.300288 0.663383
0.668682 0.305600 0.668694
0.668698 0.305604 0.668698
0.668698 0.305604 0.668698
0.196172 0.323051 0.617296
0.203305 0.324573 0.618818
0.237229 0.331811 0.626056
0.306824 0.346660 0.640905
0.450885 0.377397 0.671642
0.706607 0.431958 0.726203
0.731503 0.437270 0.731515
0.731518 0.437273 0.731518
0.731518 0.437273 0.731518
0.329988 0.603522 0.751111
0.337120 0.605044 0.752633
0.371044 0.612282 0.759871
0.440640 0.627131 0.774720
0.584700 0.657868 0.805457
0.840422 0.712430 0.860019
0.865318 0.717741 0.865330
0.865334 0.717745 0.865334
0.865334 0.717745 0.865334
0.462680 0.881640 0.883804
0.469813 0.883162 0.885326
0.503736 0.890400 0.892564
0.573332 0.905249 0.907413
0.717393 0.935986 0.938150
0.973115 0.990548 0.992711
0.998011 0.995859 0.998023
0.998026 0.995863 0.998026
0.998026 0.995863 0.998026
0.464654 0.885777 0.885778
0.471787 0.887299 0.887299
0.505710 0.894537 0.894537
0.575306 0.909386 0.909387
0.719367 0.940123 0.940124
0.975089 0.994685 0.994685
0.999984 0.999996 0.999997
1.000000 1.000000 1.000000
1.000000 1.000000 1.000000
0.464654 0.885778 0.885778
0.471787 0.887300 0.887300
0.505710 0.894538 0.894538
0.575306 0.909387 0.909387
0.719367 0.940124 0.940124
0.975089 0.994685 0.994685
0.999985 0.999997 0.999997
1.000000 1.000000 1.000000
1.000000 1.000000 1.000000
0.464654 0.885778 0.885778
0.471787 0.887300 0.887300
0.505710 0.894538 0.894538
0.575306 0.909387 0.909387
0.719367 0.940124 0.940124
0.975089 0.994685 0.994685
0.999985 0.999997 0.999997
1.000000 1.000000 1.000000
1.000000 1.000000 1.000000
0.099626 0.120694 0.520750
0.106759 0.122215 0.522272
0.140682 0.129453 0.529510
0.210278 0.144302 0.544359
0.354339 0.175039 0.575096
0.610061 0.229601 0.629657
0.634956 0.234913 0.634969
0.634972 0.234916 0.634972
0.634972 0.234916 0.634972
0.104977 0.131910 0.526101
0.112110 0.133432 0.527623
0.146034 0.140670 0.534861
0.215630 0.155519 0.549710
0.359690 0.186256 0.580447
0.615412 0.240817 0.635008
0.640308 0.246129 0.640320
0.640324 0.246133 0.640324
0.640324 0.246133 0.640324
0.133352 0.191381 0.554475
0.140485 0.192903 0.555997
0.174408 0.200141 0.563235
0.244004 0.214990 0.578084
0.388064 0.245727 0.608821
0.643786 0.300288 0.663383
0.668682 0.305600 0.668694
0.668698 0.305604 0.668698
0.668698 0.305604 0.668698
0.196172 0.323051 0.617296
0.203305 0.324573 0.618818
0.237229 0.331811 0.626056
0.306824 0.346660 0.640905
0.450885 0.377397 0.671642
0.706607 0.431958 0.726203
0.731503 0.437270 0.731515
0.731518 0.437273 0.731518
0.731518 0.437273 0.731518
0.329988 0.603522 0.751111
0.337120 0.605044 0.752633
0.371044 0.612282 0.759871
0.440640 0.627131 0.774720
0.584700 0.657868 0.805457
0.840422 0.712430 0.860019
0.865318 0.717741 0.865330
0.865334 0.717745 0.865334
0.865334 0.717745 0.865334
0.462680 0.881640 0.883804
0.469813 0.883162 0.885326
0.503736 0.890400 0.892564
0.573332 0.905249 0.907413
0.717393 0.935986 0.938150
0.973115 0.990548 0.992711
0.998011 0.995859 0.998023
0.998026 0.995863 0.998026
0.998026 0.995863 0.998026
0.464654 0.885777 0.885778
0.471787 0.887299 0.887299
0.505710 0.894537 0.894537
0.575306 0.909386 0.909387
0.719367 0.940123 0.940124
0.975089 0.994685 0.994685
0.999984 0.999996 0.999997
1.000000 1.000000 1.000000
1.000000 1.000000 1.000000
0.464654 0.885778 0.885778
0.471787 0.887300 0.887300
0.505710 0.894538 0.894538
0.575306 0.909387 0.909387
0.719367 0.940124 0.940124
0.975089 0.994685 0.994685
0.999985 0.999997 0.999997
1.000000 1.000000 1.000000
1.000000 1.000000 1.000000
0.464654 0.885778 0.885778
0.471787 0.887300 0.887300
0.505710 0.894538 0.894538
0.575306 0.909387 0.909387
0.719367 0.940124 0.940124
0.975089 0.994685 0.994685
0.999985 0.999997 0.999997
1.000000 1.000000 1.000000
1.000000 1.000000 1.000000
