luts/underwater_base.cube
TITLE "look_v1"
# Generated by dorea pipeline
# Reference look: look_v1
LUT_3D_SIZE 5
0.066218 0.087286 0.124653
0.107274 0.096045 0.133413
0.320931 0.141632 0.178999
0.601549 0.201505 0.238872
0.601564 0.201508 0.238875
0.099944 0.157973 0.158378
0.141000 0.166733 0.167138
0.354656 0.212319 0.212724
0.635274 0.272192 0.272597
0.635290 0.272196 0.272601
0.296580 0.570114 0.355014
0.337636 0.578874 0.363774
0.551292 0.624460 0.409360
0.831910 0.684333 0.469233
0.831926 0.684337 0.469237
0.431246 0.852370 0.489681
0.472302 0.861129 0.498440
0.685959 0.906715 0.544027
0.966576 0.966589 0.603900
0.966592 0.966592 0.603903
0.431246 0.852370 0.489681
0.472302 0.861130 0.498441
0.685959 0.906716 0.544027
0.966577 0.966589 0.603900
0.966592 0.966592 0.603903
0.070324 0.091392 0.173336
0.111380 0.100152 0.182096
0.325037 0.145738 0.227682
0.605655 0.205611 0.287555
0.605670 0.205614 0.287558
0.104050 0.162079 0.207062
0.145106 0.170839 0.215821
0.358762 0.216425 0.261408
0.639380 0.276298 0.321281
0.639396 0.276302 0.321284
0.300686 0.574221 0.403698
0.341742 0.582980 0.412457
0.555398 0.628566 0.458044
0.836016 0.688440 0.517917
0.836032 0.688443 0.517920
0.435352 0.856476 0.538364
0.476408 0.865235 0.547124
0.690065 0.910822 0.592710
0.970683 0.970695 0.652583
0.970698 0.970698 0.652586
0.435352 0.856476 0.538364
0.476408 0.865236 0.547124
0.690065 0.910822 0.592710
0.970683 0.970695 0.652583
0.970698 0.970698 0.652586
0.089654 0.110722 0.402520
0.130710 0.119482 0.411280
0.344367 0.165068 0.456866
0.624985 0.224941 0.516739
0.625000 0.224944 0.516742
0.123380 0.181409 0.436246
0.164436 0.190169 0.445005
0.378092 0.235755 0.490591
0.658710 0.295628 0.550464
0.658726 0.295632 0.550468
0.320016 0.593551 0.632881
0.361072 0.602310 0.641641
0.574728 0.647896 0.687227
0.855346 0.707770 0.747100
0.855362 0.707773 0.747104
0.454682 0.875806 0.767548
0.495738 0.884565 0.776308
0.709395 0.930152 0.821894
0.990013 0.990025 0.881767
0.990028 0.990028 0.881770
0.454682 0.875806 0.767548
0.495738 0.884566 0.776308
0.709395 0.930152 0.821894
0.990013 0.990025 0.881767
0.990028 0.990028 0.881770
0.099625 0.120693 0.520744
0.140682 0.129453 0.529504
0.354338 0.175039 0.575090
0.634956 0.234912 0.634963
0.634972 0.234915 0.634967
0.133351 0.191381 0.554470
0.174407 0.200141 0.563230
0.388064 0.245727 0.608816
0.668682 0.305600 0.668689
0.668697 0.305603 0.668692
0.329987 0.603522 0.751106
0.371043 0.612282 0.759866
0.584700 0.657868 0.805452
0.865318 0.717741 0.865325
0.865333 0.717744 0.865328
0.464653 0.885777 0.885772
0.505710 0.894537 0.894532
0.719366 0.940123 0.940118
0.999984 0.999996 0.999991
0.999999 0.999999 0.999995
0.464653 0.885777 0.885773
0.505710 0.894537 0.894532
0.719366 0.940123 0.940118
0.999984 0.999996 0.999991
1.000000 1.000000 0.999995
0.099626 0.120694 0.520750
0.140682 0.129453 0.529510
0.354339 0.175039 0.575096
0.634956 0.234913 0.634969
0.634972 0.234916 0.634972
0.133352 0.191381 0.554475
0.174408 0.200141 0.563235
0.388064 0.245727 0.608821
0.668682 0.305600 0.668694
0.668698 0.305604 0.668698
0.329988 0.603522 0.751111
0.371044 0.612282 0.759871
0.584700 0.657868 0.805457
0.865318 0.717741 0.865330
0.865334 0.717745 0.865334
0.464654 0.885777 0.885778
0.505710 0.894537 0.894537
0.719367 0.940123 0.940124
0.999984 0.999996 0.999997
1.000000 1.000000 1.000000
0.464654 0.885778 0.885778
0.505710 0.894538 0.894538
0.719367 0.940124 0.940124
0.999985 0.999997 0.999997
1.000000 1.000000 1.000000
