luts/underwater_base.cube
TITLE "look_v1"
# Generated by dorea pipeline
# Reference look: look_v1
LUT_3D_SIZE 33
0.066218 0.087286 0.124653
0.066218 0.087286 0.124653
0.066218 0.087286 0.124653
0.066281 0.087299 0.124666
0.073351 0.088808 0.126175
0.079859 0.090196 0.127563
0.087406 0.091806 0.129173
0.096444 0.093735 0.131102
0.107274 0.096045 0.133413
0.120256 0.098815 0.136182
0.135820 0.102136 0.139503
0.154485 0.106118 0.143485
0.176870 0.110895 0.148262
0.203721 0.116624 0.153991
0.235931 0.123496 0.160863
0.274572 0.131740 0.169108
0.320931 0.141632 0.178999
0.376550 0.153498 0.190866
0.443280 0.167736 0.205103
0.523164 0.184780 0.222147
0.576653 0.196193 0.233560
0.595269 0.200165 0.237532
0.600356 0.201250 0.238617
0.601397 0.201472 0.238839
0.601549 0.201505 0.238872
0.601563 0.201508 0.238875
0.601564 0.201508 0.238875
0.601564 0.201508 0.238875
0.601564 0.201508 0.238875
0.601564 0.201508 0.238875
0.601564 0.201508 0.238875
0.601564 0.201508 0.238875
0.601564 0.201508 0.238875
0.066218 0.087286 0.124653
0.066218 0.087286 0.124653
0.066218 0.087286 0.124653
0.066281 0.087299 0.124666
0.073351 0.088808 0.126175
0.079859 0.090196 0.127563
0.087406 0.091806 0.129173
0.096444 0.093735 0.131102
0.107274 0.096045 0.133413
0.120256 0.098815 0.136182
0.135820 0.102136 0.139503
0.154485 0.106118 0.143485
0.176870 0.110895 0.148262
0.203721 0.116624 0.153991
0.235931 0.123496 0.160863
0.274572 0.131740 0.169108
0.320931 0.141632 0.178999
0.376550 0.153498 0.190866
0.443280 0.167736 0.205103
0.523164 0.184780 0.222147
0.576653 0.196193 0.233560
0.595269 0.200165 0.237532
0.600356 0.201250 0.238617
0.601397 0.201472 0.238839
0.601549 0.201505 0.238872
0.601563 0.201508 0.238875
0.601564 0.201508 0.238875
0.601564 0.201508 0.238875
0.601564 0.201508 0.238875
0.601564 0.201508 0.238875
0.601564 0.201508 0.238875
0.601564 0.201508 0.238875
0.601564 0.201508 0.238875
0.066218 0.087286 0.124653
0.066218 0.087286 0.124653
0.066218 0.087286 0.124653
0.066281 0.087299 0.124666
0.073351 0.088808 0.126175
0.079859 0.090196 0.127563
0.087406 0.091806 0.129173
0.096444 0.093735 0.131102
0.107274 0.096045 0.133413
0.120256 0.098815 0.136182
0.135820 0.102136 0.139503
0.154485 0.106118 0.143485
0.176870 0.110895 0.148262
0.203721 0.116624 0.153991
0.235931 0.123496 0.160863
0.274572 0.131740 0.169108
0.320931 0.141632 0.178999
0.376550 0.153498 0.190866
0.443280 0.167736 0.205103
0.523164 0.184780 0.222147
0.576653 0.196193 0.233560
0.595269 0.200165 0.237532
0.600356 0.201250 0.238617
0.601397 0.201472 0.238839
0.601549 0.201505 0.238872
0.601563 0.201508 0.238875
0.601564 0.201508 0.238875
0.601564 0.201508 0.238875
0.601564 0.201508 0.238875
0.601564 0.201508 0.238875
0.601564 0.201508 0.238875
0.601564 0.201508 0.238875
0.601564 0.201508 0.238875
0.066264 0.087382 0.124699
0.066264 0.087382 0.124699
0.066264 0.087382 0.124699
0.066327 0.087395 0.124712
0.073397 0.088904 0.126220
0.079905 0.090292 0.127609
0.087452 0.091902 0.129219
0.096490 0.093831 0.131148
0.107320 0.096142 0.133458
0.120302 0.098911 0.136228
0.135866 0.102232 0.139549
0.154531 0.106215 0.143531
0.176916 0.110991 0.148307
0.203767 0.116720 0.154036
0.235977 0.123592 0.160909
0.274618 0.131837 0.169153
0.320977 0.141728 0.179044
0.376595 0.153595 0.190911
0.443326 0.167832 0.205149
0.523210 0.184877 0.222193
0.576699 0.196289 0.233606
0.595315 0.200261 0.237578
0.600402 0.201346 0.238663
0.601443 0.201568 0.238885
0.601594 0.201601 0.238918
0.601609 0.201604 0.238921
0.601610 0.201604 0.238921
0.601610 0.201604 0.238921
0.601610 0.201604 0.238921
0.601610 0.201604 0.238921
0.601610 0.201604 0.238921
0.601610 0.201604 0.238921
0.601610 0.201604 0.238921
0.071570 0.098502 0.130004
0.071570 0.098502 0.130004
0.071570 0.098502 0.130004
0.071633 0.098516 0.130018
0.078702 0.100024 0.131526
0.085211 0.101413 0.132915
0.092757 0.103023 0.134525
0.101796 0.104951 0.136453
0.112626 0.107262 0.138764
0.125607 0.110032 0.141534
0.141172 0.113353 0.144855
0.159836 0.117335 0.148837
0.182222 0.122111 0.153613
0.209073 0.127840 0.159342
0.241283 0.134713 0.166215
0.279924 0.142957 0.174459
0.326282 0.152848 0.184350
0.381901 0.164715 0.196217
0.448632 0.178953 0.210455
0.528516 0.195997 0.227499
0.582004 0.207410 0.238911
0.600621 0.211382 0.242884
0.605707 0.212467 0.243969
0.606749 0.212689 0.244191
0.606900 0.212721 0.244223
0.606915 0.212724 0.244226
0.606916 0.212725 0.244227
0.606916 0.212725 0.244227
0.606916 0.212725 0.244227
0.606916 0.212725 0.244227
0.606916 0.212725 0.244227
0.606916 0.212725 0.244227
0.606916 0.212725 0.244227
0.076721 0.109301 0.135156
0.076721 0.109301 0.135156
0.076721 0.109301 0.135156
0.076785 0.109314 0.135170
0.083854 0.110823 0.136678
0.090363 0.112211 0.138067
0.097909 0.113821 0.139677
0.106948 0.115750 0.141605
0.117778 0.118060 0.143916
0.130759 0.120830 0.146686
0.146324 0.124151 0.150007
0.164988 0.128133 0.153989
0.187374 0.132910 0.158765
0.214225 0.138639 0.164494
0.246435 0.145511 0.171367
0.285076 0.153755 0.179611
0.331434 0.163647 0.189502
0.387053 0.175513 0.201369
0.453784 0.189751 0.215607
0.533668 0.206795 0.232651
0.587156 0.218208 0.244063
0.605773 0.222180 0.248036
0.610859 0.223265 0.249121
0.611901 0.223487 0.249343
0.612052 0.223520 0.249375
0.612067 0.223523 0.249378
0.612068 0.223523 0.249379
0.612068 0.223523 0.249379
0.612068 0.223523 0.249379
0.612068 0.223523 0.249379
0.612068 0.223523 0.249379
0.612068 0.223523 0.249379
0.612068 0.223523 0.249379
0.082918 0.122289 0.141353
0.082918 0.122289 0.141353
0.082918 0.122289 0.141353
0.082982 0.122302 0.141367
0.090051 0.123811 0.142875
0.096560 0.125199 0.144264
0.104106 0.126810 0.145874
0.113144 0.128738 0.147802
0.123975 0.131049 0.150113
0.136956 0.133819 0.152883
0.152521 0.137139 0.156204
0.171185 0.141122 0.160186
0.193570 0.145898 0.164962
0.220421 0.151627 0.170691
0.252632 0.158499 0.177563
0.291273 0.166744 0.185808
0.337631 0.176635 0.195699
0.393250 0.188502 0.207566
0.459981 0.202740 0.221804
0.539864 0.219784 0.238848
0.593353 0.231196 0.250260
0.611970 0.235168 0.254232
0.617056 0.236253 0.255318
0.618098 0.236476 0.255540
0.618249 0.236508 0.255572
0.618264 0.236511 0.255575
0.618264 0.236511 0.255575
0.618264 0.236511 0.255575
0.618264 0.236511 0.255575
0.618264 0.236511 0.255575
0.618264 0.236511 0.255575
0.618264 0.236511 0.255575
0.618264 0.236511 0.255575
0.090563 0.138311 0.148997
0.090563 0.138311 0.148997
0.090563 0.138311 0.148997
0.090626 0.138325 0.149011
0.097696 0.139833 0.150519
0.104204 0.141222 0.151908
0.111750 0.142832 0.153518
0.120789 0.144760 0.155447
0.131619 0.147071 0.157757
0.144601 0.149841 0.160527
0.160165 0.153162 0.163848
0.178829 0.157144 0.167830
0.201215 0.161920 0.172606
0.228066 0.167649 0.178335
0.260276 0.174521 0.185208
0.298917 0.182766 0.193452
0.345275 0.192657 0.203343
0.400894 0.204524 0.215210
0.467625 0.218762 0.229448
0.547509 0.235806 0.246492
0.600998 0.247218 0.257905
0.619614 0.251190 0.261877
0.624701 0.252276 0.262962
0.625742 0.252498 0.263184
0.625893 0.252530 0.263216
0.625908 0.252533 0.263220
0.625909 0.252533 0.263220
0.625909 0.252533 0.263220
0.625909 0.252533 0.263220
0.625909 0.252533 0.263220
0.625909 0.252533 0.263220
0.625909 0.252533 0.263220
0.625909 0.252533 0.263220
0.099944 0.157973 0.158378
0.099944 0.157973 0.158378
0.099944 0.157973 0.158378
0.100007 0.157987 0.158392
0.107077 0.159495 0.159900
0.113585 0.160884 0.161289
0.121131 0.162494 0.162899
0.130170 0.164422 0.164828
0.141000 0.166733 0.167138
0.153982 0.169503 0.169908
0.169546 0.172824 0.173229
0.188210 0.176806 0.177211
0.210596 0.181582 0.181987
0.237447 0.187311 0.187716
0.269657 0.194184 0.194589
0.308298 0.202428 0.202833
0.354656 0.212319 0.212724
0.410275 0.224186 0.224591
0.477006 0.238424 0.238829
0.556890 0.255468 0.255873
0.610379 0.266881 0.267286
0.628995 0.270853 0.271258
0.634082 0.271938 0.272343
0.635123 0.272160 0.272565
0.635274 0.272192 0.272597
0.635289 0.272195 0.272601
0.635290 0.272196 0.272601
0.635290 0.272196 0.272601
0.635290 0.272196 0.272601
0.635290 0.272196 0.272601
0.635290 0.272196 0.272601
0.635290 0.272196 0.272601
0.635290 0.272196 0.272601
0.111404 0.181995 0.169839
0.111404 0.181995 0.169839
0.111404 0.181995 0.169839
0.111468 0.182008 0.169853
0.118537 0.183516 0.171361
0.125046 0.184905 0.172750
0.132592 0.186515 0.174360
0.141631 0.188444 0.176288
0.152461 0.190754 0.178599
0.165442 0.193524 0.181369
0.181007 0.196845 0.184690
0.199671 0.200827 0.188672
0.222057 0.205604 0.193448
0.248908 0.211332 0.199177
0.281118 0.218205 0.206049
0.319759 0.226449 0.214294
0.366117 0.236341 0.224185
0.421736 0.248207 0.236052
0.488467 0.262445 0.250290
0.568350 0.279489 0.267334
0.621839 0.290902 0.278746
0.640456 0.294874 0.282718
0.645542 0.295959 0.283804
0.646584 0.296181 0.284026
0.646735 0.296214 0.284058
0.646750 0.296217 0.284061
0.646750 0.296217 0.284061
0.646750 0.296217 0.284061
0.646750 0.296217 0.284061
0.646750 0.296217 0.284061
0.646750 0.296217 0.284061
0.646750 0.296217 0.284061
0.646750 0.296217 0.284061
0.125353 0.211231 0.183788
0.125353 0.211231 0.183788
0.125353 0.211231 0.183788
0.125417 0.211245 0.183802
0.132486 0.212753 0.185310
0.138995 0.214142 0.186699
0.146541 0.215752 0.188309
0.155580 0.217680 0.190237
0.166410 0.219991 0.192548
0.179391 0.222761 0.195318
0.194956 0.226082 0.198639
0.213620 0.230064 0.202621
0.236006 0.234840 0.207397
0.262857 0.240569 0.213126
0.295067 0.247442 0.219998
0.333708 0.255686 0.228243
0.380066 0.265577 0.238134
0.435685 0.277444 0.250001
0.502416 0.291682 0.264239
0.582300 0.308726 0.281283
0.635788 0.320138 0.292695
0.654405 0.324111 0.296667
0.659491 0.325196 0.297753
0.660533 0.325418 0.297975
0.660684 0.325450 0.298007
0.660699 0.325453 0.298010
0.660699 0.325454 0.298010
0.660700 0.325454 0.298010
0.660700 0.325454 0.298010
0.660700 0.325454 0.298010
0.660700 0.325454 0.298010
0.660700 0.325454 0.298010
0.660700 0.325454 0.298010
0.142279 0.246706 0.200714
0.142279 0.246706 0.200714
0.142279 0.246706 0.200714
0.142342 0.246720 0.200727
0.149412 0.248228 0.202235
0.155920 0.249617 0.203624
0.163467 0.251227 0.205234
0.172505 0.253155 0.207163
0.183335 0.255466 0.209473
0.196317 0.258236 0.212243
0.211881 0.261556 0.215564
0.230545 0.265539 0.219546
0.252931 0.270315 0.224322
0.279782 0.276044 0.230051
0.311992 0.282916 0.236924
0.350633 0.291161 0.245168
0.396992 0.301052 0.255059
0.452610 0.312919 0.266926
0.519341 0.327157 0.281164
0.599225 0.344201 0.298208
0.652714 0.355613 0.309621
0.671330 0.359585 0.313593
0.676417 0.360671 0.314678
0.677458 0.360893 0.314900
0.677609 0.360925 0.314932
0.677624 0.360928 0.314936
0.677625 0.360928 0.314936
0.677625 0.360928 0.314936
0.677625 0.360928 0.314936
0.677625 0.360928 0.314936
0.677625 0.360928 0.314936
0.677625 0.360928 0.314936
0.677625 0.360928 0.314936
0.162764 0.289643 0.221199
0.162764 0.289643 0.221199
0.162764 0.289643 0.221199
0.162828 0.289657 0.221213
0.169897 0.291165 0.222721
0.176406 0.292554 0.224110
0.183952 0.294164 0.225720
0.192991 0.296092 0.227648
0.203821 0.298403 0.229959
0.216802 0.301173 0.232729
0.232367 0.304494 0.236050
0.251031 0.308476 0.240032
0.273417 0.313252 0.244808
0.300268 0.318981 0.250537
0.332478 0.325853 0.257409
0.371119 0.334098 0.265654
0.417477 0.343989 0.275545
0.473096 0.355856 0.287412
0.539827 0.370094 0.301650
0.619710 0.387138 0.318694
0.673199 0.398550 0.330106
0.691816 0.402522 0.334078
0.696902 0.403608 0.335164
0.697944 0.403830 0.335386
0.698095 0.403862 0.335418
0.698110 0.403865 0.335421
0.698110 0.403865 0.335421
0.698110 0.403865 0.335421
0.698110 0.403865 0.335421
0.698110 0.403865 0.335421
0.698110 0.403865 0.335421
0.698110 0.403865 0.335421
0.698110 0.403865 0.335421
0.187510 0.341510 0.245945
0.187510 0.341510 0.245945
0.187510 0.341510 0.245945
0.187574 0.341523 0.245959
0.194643 0.343032 0.247467
0.201152 0.344420 0.248856
0.208698 0.346030 0.250466
0.217736 0.347959 0.252394
0.228567 0.350269 0.254705
0.241548 0.353039 0.257475
0.257113 0.356360 0.260796
0.275777 0.360342 0.264778
0.298162 0.365119 0.269554
0.325013 0.370848 0.275283
0.357224 0.377720 0.282155
0.395865 0.385964 0.290400
0.442223 0.395856 0.300291
0.497842 0.407722 0.312158
0.564573 0.421960 0.326396
0.644456 0.439004 0.343440
0.697945 0.450417 0.354852
0.716562 0.454389 0.358824
0.721648 0.455474 0.359910
0.722690 0.455696 0.360132
0.722841 0.455729 0.360164
0.722856 0.455732 0.360167
0.722856 0.455732 0.360167
0.722856 0.455732 0.360167
0.722856 0.455732 0.360167
0.722856 0.455732 0.360167
0.722856 0.455732 0.360167
0.722856 0.455732 0.360167
0.722856 0.455732 0.360167
0.217356 0.404065 0.275791
0.217356 0.404065 0.275791
0.217356 0.404065 0.275791
0.217420 0.404079 0.275804
0.224489 0.405587 0.277313
0.230998 0.406976 0.278701
0.238544 0.408586 0.280312
0.247582 0.410514 0.282240
0.258413 0.412825 0.284551
0.271394 0.415595 0.287321
0.286958 0.418916 0.290641
0.305623 0.422898 0.294624
0.328008 0.427674 0.299400
0.354859 0.433403 0.305129
0.387069 0.440276 0.312001
0.425711 0.448520 0.320246
0.472069 0.458411 0.330137
0.527688 0.470278 0.342004
0.594419 0.484516 0.356242
0.674302 0.501560 0.373286
0.727791 0.512973 0.384698
0.746408 0.516945 0.388670
0.751494 0.518030 0.389755
0.752536 0.518252 0.389978
0.752687 0.518284 0.390010
0.752701 0.518287 0.390013
0.752702 0.518288 0.390013
0.752702 0.518288 0.390013
0.752702 0.518288 0.390013
0.752702 0.518288 0.390013
0.752702 0.518288 0.390013
0.752702 0.518288 0.390013
0.752702 0.518288 0.390013
0.253310 0.479422 0.311744
0.253310 0.479422 0.311744
0.253310 0.479422 0.311744
0.253373 0.479436 0.311758
0.260442 0.480944 0.313266
0.266951 0.482333 0.314655
0.274497 0.483943 0.316265
0.283536 0.485871 0.318193
0.294366 0.488182 0.320504
0.307347 0.490952 0.323274
0.322912 0.494273 0.326595
0.341576 0.498255 0.330577
0.363962 0.503031 0.335353
0.390813 0.508760 0.341082
0.423023 0.515632 0.347955
0.461664 0.523877 0.356199
0.508022 0.533768 0.366090
0.563641 0.545635 0.377957
0.630372 0.559873 0.392195
0.710256 0.576917 0.409239
0.763744 0.588329 0.420651
0.782361 0.592301 0.424624
0.787447 0.593387 0.425709
0.788489 0.593609 0.425931
0.788640 0.593641 0.425963
0.788655 0.593644 0.425966
0.788656 0.593644 0.425967
0.788656 0.593644 0.425967
0.788656 0.593644 0.425967
0.788656 0.593644 0.425967
0.788656 0.593644 0.425967
0.788656 0.593644 0.425967
0.788656 0.593644 0.425967
0.296580 0.570114 0.355014
0.296580 0.570114 0.355014
0.296580 0.570114 0.355014
0.296643 0.570128 0.355028
0.303713 0.571636 0.356536
0.310221 0.573025 0.357925
0.317767 0.574635 0.359535
0.326806 0.576564 0.361463
0.337636 0.578874 0.363774
0.350618 0.581644 0.366544
0.366182 0.584965 0.369865
0.384846 0.588947 0.373847
0.407232 0.593723 0.378623
0.434083 0.599452 0.384352
0.466293 0.606325 0.391225
0.504934 0.614569 0.399469
0.551292 0.624460 0.409360
0.606911 0.636327 0.421227
0.673642 0.650565 0.435465
0.753526 0.667609 0.452509
0.807015 0.679022 0.463922
0.825631 0.682994 0.467894
0.830718 0.684079 0.468979
0.831759 0.684301 0.469201
0.831910 0.684333 0.469233
0.831925 0.684337 0.469236
0.831926 0.684337 0.469237
0.831926 0.684337 0.469237
0.831926 0.684337 0.469237
0.831926 0.684337 0.469237
0.831926 0.684337 0.469237
0.831926 0.684337 0.469237
0.831926 0.684337 0.469237
0.348618 0.679185 0.407053
0.348618 0.679185 0.407053
0.348618 0.679185 0.407053
0.348682 0.679199 0.407066
0.355751 0.680707 0.408575
0.362259 0.682096 0.409963
0.369806 0.683706 0.411573
0.378844 0.685634 0.413502
0.389674 0.687945 0.415813
0.402656 0.690715 0.418582
0.418220 0.694035 0.421903
0.436885 0.698018 0.425886
0.459270 0.702794 0.430662
0.486121 0.708523 0.436391
0.518331 0.715395 0.443263
0.556972 0.723640 0.451508
0.603331 0.733531 0.461399
0.658950 0.745398 0.473266
0.725681 0.759636 0.487503
0.805564 0.776680 0.504548
0.859053 0.788092 0.515960
0.877670 0.792064 0.519932
0.882756 0.793150 0.521017
0.883797 0.793372 0.521240
0.883949 0.793404 0.521272
0.883963 0.793407 0.521275
0.883964 0.793407 0.521275
0.883964 0.793407 0.521275
0.883964 0.793407 0.521275
0.883964 0.793407 0.521275
0.883964 0.793407 0.521275
0.883964 0.793407 0.521275
0.883964 0.793407 0.521275
0.400353 0.787618 0.458787
0.400353 0.787618 0.458787
0.400353 0.787618 0.458787
0.400416 0.787632 0.458801
0.407486 0.789140 0.460309
0.413994 0.790529 0.461698
0.421540 0.792139 0.463308
0.430579 0.794068 0.465236
0.441409 0.796378 0.467547
0.454390 0.799148 0.470317
0.469955 0.802469 0.473638
0.488619 0.806451 0.477620
0.511005 0.811227 0.482396
0.537856 0.816956 0.488125
0.570066 0.823829 0.494998
0.608707 0.832073 0.503242
0.655065 0.841964 0.513133
0.710684 0.853831 0.525000
0.777415 0.868069 0.539238
0.857299 0.885113 0.556282
0.910787 0.896526 0.567695
0.929404 0.900498 0.571667
0.934490 0.901583 0.572752
0.935532 0.901805 0.572974
0.935683 0.901837 0.573006
0.935698 0.901841 0.573009
0.935699 0.901841 0.573010
0.935699 0.901841 0.573010
0.935699 0.901841 0.573010
0.935699 0.901841 0.573010
0.935699 0.901841 0.573010
0.935699 0.901841 0.573010
0.935699 0.901841 0.573010
0.422391 0.833811 0.480826
0.422391 0.833811 0.480826
0.422391 0.833811 0.480826
0.422455 0.833824 0.480840
0.429524 0.835333 0.482348
0.436033 0.836721 0.483737
0.443579 0.838331 0.485347
0.452617 0.840260 0.487275
0.463448 0.842571 0.489586
0.476429 0.845340 0.492356
0.491994 0.848661 0.495677
0.510658 0.852644 0.499659
0.533043 0.857420 0.504435
0.559894 0.863149 0.510164
0.592105 0.870021 0.517036
0.630746 0.878266 0.525281
0.677104 0.888157 0.535172
0.732723 0.900024 0.547039
0.799454 0.914261 0.561277
0.879337 0.931306 0.578321
0.932826 0.942718 0.589733
0.951443 0.946690 0.593705
0.956529 0.947775 0.594791
0.957571 0.947998 0.595013
0.957722 0.948030 0.595045
0.957737 0.948033 0.595048
0.957737 0.948033 0.595048
0.957737 0.948033 0.595048
0.957737 0.948033 0.595048
0.957737 0.948033 0.595048
0.957737 0.948033 0.595048
0.957737 0.948033 0.595048
0.957737 0.948033 0.595048
0.429272 0.848232 0.487707
0.429272 0.848232 0.487707
0.429272 0.848232 0.487707
0.429335 0.848246 0.487720
0.436405 0.849754 0.489229
0.442913 0.851143 0.490617
0.450460 0.852753 0.492227
0.459498 0.854681 0.494156
0.470328 0.856992 0.496467
0.483310 0.859762 0.499236
0.498874 0.863083 0.502557
0.517539 0.867065 0.506539
0.539924 0.871841 0.511316
0.566775 0.877570 0.517045
0.598985 0.884443 0.523917
0.637626 0.892687 0.532162
0.683985 0.902578 0.542053
0.739604 0.914445 0.553920
0.806334 0.928683 0.568157
0.886218 0.945727 0.585201
0.939707 0.957140 0.596614
0.958324 0.961112 0.600586
0.963410 0.962197 0.601671
0.964451 0.962419 0.601893
0.964603 0.962451 0.601926
0.964617 0.962454 0.601929
0.964618 0.962455 0.601929
0.964618 0.962455 0.601929
0.964618 0.962455 0.601929
0.964618 0.962455 0.601929
0.964618 0.962455 0.601929
0.964618 0.962455 0.601929
0.964618 0.962455 0.601929
0.430920 0.851687 0.489355
0.430920 0.851687 0.489355
0.430920 0.851687 0.489355
0.430984 0.851701 0.489369
0.438053 0.853209 0.490877
0.444562 0.854598 0.492266
0.452108 0.856208 0.493876
0.461147 0.858137 0.495804
0.471977 0.860447 0.498115
0.484958 0.863217 0.500885
0.500523 0.866538 0.504206
0.519187 0.870520 0.508188
0.541573 0.875296 0.512964
0.568424 0.881025 0.518693
0.600634 0.887898 0.525565
0.639275 0.896142 0.533810
0.685633 0.906033 0.543701
0.741252 0.917900 0.555568
0.807983 0.932138 0.569806
0.887867 0.949182 0.586850
0.941355 0.960595 0.598262
0.959972 0.964567 0.602234
0.965058 0.965652 0.603320
0.966100 0.965874 0.603542
0.966251 0.965906 0.603574
0.966266 0.965910 0.603577
0.966266 0.965910 0.603577
0.966267 0.965910 0.603577
0.966267 0.965910 0.603577
0.966267 0.965910 0.603577
0.966267 0.965910 0.603577
0.966267 0.965910 0.603577
0.966267 0.965910 0.603577
0.431209 0.852291 0.489643
0.431209 0.852291 0.489643
0.431209 0.852291 0.489643
0.431272 0.852305 0.489657
0.438342 0.853813 0.491165
0.444850 0.855202 0.492554
0.452396 0.856812 0.494164
0.461435 0.858740 0.496092
0.472265 0.861051 0.498403
0.485246 0.863821 0.501173
0.500811 0.867142 0.504494
0.519475 0.871124 0.508476
0.541861 0.875900 0.513252
0.568712 0.881629 0.518981
0.600922 0.888502 0.525854
0.639563 0.896746 0.534098
0.685921 0.906637 0.543989
0.741540 0.918504 0.555856
0.808271 0.932742 0.570094
0.888155 0.949786 0.587138
0.941643 0.961199 0.598551
0.960260 0.965171 0.602523
0.965346 0.966256 0.603608
0.966388 0.966478 0.603830
0.966539 0.966510 0.603862
0.966554 0.966513 0.603865
0.966555 0.966514 0.603866
0.966555 0.966514 0.603866
0.966555 0.966514 0.603866
0.966555 0.966514 0.603866
0.966555 0.966514 0.603866
0.966555 0.966514 0.603866
0.966555 0.966514 0.603866
0.431243 0.852364 0.489678
0.431243 0.852364 0.489678
0.431243 0.852364 0.489678
0.431307 0.852377 0.489691
0.438376 0.853886 0.491200
0.444885 0.855274 0.492588
0.452431 0.856885 0.494199
0.461469 0.858813 0.496127
0.472300 0.861124 0.498438
0.485281 0.863894 0.501208
0.500845 0.867214 0.504528
0.519510 0.871197 0.508511
0.541895 0.875973 0.513287
0.568746 0.881702 0.519016
0.600956 0.888574 0.525888
0.639598 0.896819 0.534133
0.685956 0.906710 0.544024
0.741575 0.918577 0.555891
0.808306 0.932815 0.570129
0.888189 0.949859 0.587173
0.941678 0.961271 0.598585
0.960295 0.965243 0.602557
0.965381 0.966328 0.603642
0.966423 0.966551 0.603865
0.966574 0.966583 0.603897
0.966588 0.966586 0.603900
0.966589 0.966586 0.603900
0.966589 0.966586 0.603900
0.966589 0.966586 0.603900
0.966589 0.966586 0.603900
0.966589 0.966586 0.603900
0.966589 0.966586 0.603900
0.966589 0.966586 0.603900
0.431246 0.852370 0.489681
0.431246 0.852370 0.489681
0.431246 0.852370 0.489681
0.431309 0.852383 0.489694
0.438379 0.853891 0.491203
0.444887 0.855280 0.492591
0.452434 0.856890 0.494201
0.461472 0.858819 0.496130
0.472302 0.861129 0.498440
0.485284 0.863899 0.501210
0.500848 0.867220 0.504531
0.519513 0.871202 0.508513
0.541898 0.875978 0.513290
0.568749 0.881707 0.519019
0.600959 0.888580 0.525891
0.639600 0.896824 0.534135
0.685959 0.906715 0.544027
0.741577 0.918582 0.555893
0.808308 0.932820 0.570131
0.888192 0.949864 0.587175
0.941681 0.961277 0.598588
0.960297 0.965249 0.602560
0.965384 0.966334 0.603645
0.966425 0.966556 0.603867
0.966576 0.966589 0.603900
0.966591 0.966592 0.603903
0.966592 0.966592 0.603903
0.966592 0.966592 0.603903
0.966592 0.966592 0.603903
0.966592 0.966592 0.603903
0.966592 0.966592 0.603903
0.966592 0.966592 0.603903
0.966592 0.966592 0.603903
0.431246 0.852370 0.489681
0.431246 0.852370 0.489681
0.431246 0.852370 0.489681
0.431309 0.852383 0.489694
0.438379 0.853892 0.491203
0.444887 0.855280 0.492591
0.452434 0.856890 0.494201
0.461472 0.858819 0.496130
0.472302 0.861130 0.498441
0.485284 0.863899 0.501210
0.500848 0.867220 0.504531
0.519513 0.871203 0.508513
0.541898 0.875979 0.513290
0.568749 0.881708 0.519019
0.600959 0.888580 0.525891
0.639600 0.896825 0.534136
0.685959 0.906716 0.544027
0.741578 0.918583 0.555894
0.808308 0.932820 0.570131
0.888192 0.949865 0.587175
0.941681 0.961277 0.598588
0.960298 0.965249 0.602560
0.965384 0.966334 0.603645
0.966425 0.966556 0.603867
0.966577 0.966589 0.603900
0.966591 0.966592 0.603903
0.966592 0.966592 0.603903
0.966592 0.966592 0.603903
0.966592 0.966592 0.603903
0.966592 0.966592 0.603903
0.966592 0.966592 0.603903
0.966592 0.966592 0.603903
0.966592 0.966592 0.603903
0.431246 0.852370 0.489681
0.431246 0.852370 0.489681
0.431246 0.852370 0.489681
0.431309 0.852383 0.489694
0.438379 0.853892 0.491203
0.444887 0.855280 0.492591
0.452434 0.856890 0.494201
0.461472 0.858819 0.496130
0.472302 0.861130 0.498441
0.485284 0.863899 0.501210
0.500848 0.867220 0.504531
0.519513 0.871203 0.508513
0.541898 0.875979 0.513290
0.568749 0.881708 0.519019
0.600959 0.888580 0.525891
0.639600 0.896825 0.534136
0.685959 0.906716 0.544027
0.741578 0.918583 0.555894
0.808308 0.932820 0.570131
0.888192 0.949865 0.587175
0.941681 0.961277 0.598588
0.960298 0.965249 0.602560
0.965384 0.966334 0.603645
0.966425 0.966557 0.603867
0.966577 0.966589 0.603900
0.966591 0.966592 0.603903
0.966592 0.966592 0.603903
